flaticon/army-badges/badges-2.svg

<svg xmlns="http://www.w3.org/2000/svg" width="32" height="32" viewBox="0 0 24 24">
    <path d="M 22.460938 17.988281 L 23.941406 15.792969 C 24.019531 15.675781 24.019531 15.515625 23.941406 15.394531 C 23.859375 15.273438 23.742188 15.195312 23.582031 15.195312 L 21.183594 15.195312 L 21.183594 13.597656 C 21.183594 13.359375 21.023438 13.199219 20.785156 13.199219 L 19.988281 13.199219 L 19.988281 3.613281 C 19.988281 3.375 19.828125 3.214844 19.585938 3.214844 L 4.414062 3.214844 C 4.171875 3.214844 4.011719 3.375 4.011719 3.613281 L 4.011719 13.199219 L 3.214844 13.199219 C 2.976562 13.199219 2.816406 13.359375 2.816406 13.597656 L 2.816406 15.195312 L 0.417969 15.195312 C 0.257812 15.195312 0.140625 15.273438 0.101562 15.433594 C 0.0195312 15.554688 0.0195312 15.714844 0.101562 15.832031 L 1.539062 17.988281 L 0.0585938 20.1875 C -0.0195312 20.304688 -0.0195312 20.464844 0.0585938 20.585938 C 0.140625 20.707031 0.257812 20.785156 0.417969 20.785156 L 4.011719 20.785156 C 4.253906 20.785156 4.414062 20.625 4.414062 20.386719 L 4.414062 18.789062 L 19.585938 18.789062 L 19.585938 20.386719 C 19.585938 20.625 19.746094 20.785156 19.988281 20.785156 L 23.582031 20.785156 C 23.742188 20.785156 23.820312 20.664062 23.898438 20.546875 C 23.980469 20.425781 23.980469 20.265625 23.898438 20.144531 Z M 4.8125 4.011719 L 19.1875 4.011719 L 19.1875 13.199219 L 17.082031 13.199219 C 17.300781 12.949219 17.628906 12.796875 17.988281 12.796875 C 18.230469 12.796875 18.390625 12.640625 18.390625 12.398438 L 18.390625 6.808594 C 18.390625 6.570312 18.230469 6.410156 17.988281 6.410156 C 17.3125 6.410156 16.792969 5.890625 16.792969 5.210938 C 16.792969 4.972656 16.632812 4.8125 16.394531 4.8125 L 7.605469 4.8125 C 7.367188 4.8125 7.207031 4.972656 7.207031 5.210938 C 7.207031 5.890625 6.6875 6.410156 6.011719 6.410156 C 5.769531 6.410156 5.609375 6.570312 5.609375 6.808594 L 5.609375 12.398438 C 5.609375 12.640625 5.769531 12.796875 6.011719 12.796875 C 6.371094 12.796875 6.699219 12.949219 6.917969 13.199219 L 4.8125 13.199219 Z M 10.402344 8.804688 C 10.402344 7.925781 11.121094 7.207031 12 7.207031 C 12.878906 7.207031 13.597656 7.925781 13.597656 8.804688 C 13.597656 9.683594 12.878906 10.402344 12 10.402344 C 11.121094 10.402344 10.402344 9.683594 10.402344 8.804688 Z M 15.167969 13.199219 C 15.03125 12.117188 14.351562 11.203125 13.414062 10.734375 C 14.007812 10.296875 14.394531 9.59375 14.394531 8.804688 C 14.394531 7.488281 13.316406 6.410156 12 6.410156 C 10.683594 6.410156 9.605469 7.488281 9.605469 8.804688 C 9.605469 9.59375 9.992188 10.296875 10.585938 10.734375 C 9.648438 11.203125 8.96875 12.117188 8.832031 13.199219 L 7.847656 13.199219 C 7.566406 12.597656 7.046875 12.199219 6.410156 12.039062 L 6.410156 7.167969 C 7.207031 7.046875 7.808594 6.410156 7.964844 5.609375 L 16.035156 5.609375 C 16.191406 6.410156 16.792969 7.046875 17.589844 7.167969 L 17.589844 12.039062 C 16.953125 12.160156 16.394531 12.597656 16.152344 13.199219 Z M 14.355469 13.199219 L 9.644531 13.199219 C 9.84375 12.078125 10.800781 11.203125 12 11.203125 C 13.199219 11.203125 14.15625 12.078125 14.355469 13.199219 Z M 3.613281 13.996094 L 20.386719 13.996094 L 20.386719 17.988281 L 3.613281 17.988281 Z M 3.613281 19.988281 L 1.179688 19.988281 L 2.375 18.191406 C 2.457031 18.070312 2.457031 17.871094 2.375 17.75 L 1.179688 15.992188 L 2.816406 15.992188 L 2.816406 18.390625 C 2.816406 18.628906 2.976562 18.789062 3.214844 18.789062 L 3.613281 18.789062 Z M 20.386719 19.988281 L 20.386719 18.828125 L 20.785156 18.828125 C 21.023438 18.828125 21.183594 18.667969 21.183594 18.429688 L 21.183594 16.035156 L 22.820312 16.035156 L 21.625 17.789062 C 21.542969 17.910156 21.542969 18.109375 21.625 18.230469 L 22.820312 19.988281 Z M 20.386719 19.988281"/>
    <path d="M7.207031 15.59375L8.804688 15.59375C9.046875 15.59375 9.203125 15.433594 9.203125 15.195312 9.203125 14.957031 9.046875 14.796875 8.804688 14.796875L7.207031 14.796875C6.96875 14.796875 6.808594 14.957031 6.808594 15.195312 6.808594 15.433594 6.96875 15.59375 7.207031 15.59375zM10.402344 15.59375L12.796875 15.59375C13.039062 15.59375 13.199219 15.433594 13.199219 15.195312 13.199219 14.957031 13.039062 14.796875 12.796875 14.796875L10.402344 14.796875C10.164062 14.796875 10.003906 14.957031 10.003906 15.195312 10.003906 15.433594 10.164062 15.59375 10.402344 15.59375zM7.207031 17.191406L10.800781 17.191406C11.042969 17.191406 11.203125 17.03125 11.203125 16.792969 11.203125 16.550781 11.042969 16.394531 10.800781 16.394531L7.207031 16.394531C6.96875 16.394531 6.808594 16.550781 6.808594 16.792969 6.808594 17.03125 6.96875 17.191406 7.207031 17.191406zM16.792969 16.394531L15.992188 16.394531C15.753906 16.394531 15.59375 16.550781 15.59375 16.792969 15.59375 17.03125 15.753906 17.191406 15.992188 17.191406L16.792969 17.191406C17.03125 17.191406 17.191406 17.03125 17.191406 16.792969 17.191406 16.550781 17.03125 16.394531 16.792969 16.394531zM12 16.792969C12 17.03125 12.160156 17.191406 12.398438 17.191406L14.394531 17.191406C14.636719 17.191406 14.796875 17.03125 14.796875 16.792969 14.796875 16.550781 14.636719 16.394531 14.394531 16.394531L12.398438 16.394531C12.160156 16.394531 12 16.550781 12 16.792969zM14.796875 15.59375L16.792969 15.59375C17.03125 15.59375 17.191406 15.433594 17.191406 15.195312 17.191406 14.957031 17.03125 14.796875 16.792969 14.796875L14.796875 14.796875C14.554688 14.796875 14.394531 14.957031 14.394531 15.195312 14.394531 15.433594 14.554688 15.59375 14.796875 15.59375zM14.796875 15.59375"/>
</svg>

<svg xmlns="http://www.w3.org/2000/svg" width="32" height="32" viewBox="0 0 24 24">
    <path d="M22.46 17.988l1.481-2.195a.368.368 0 0 0 0-.398.418.418 0 0 0-.359-.2h-2.398v-1.597c0-.239-.16-.399-.399-.399h-.797V3.613c0-.238-.16-.398-.402-.398H4.414c-.242 0-.402.16-.402.398V13.2h-.797c-.238 0-.399.16-.399.399v1.597H.418c-.16 0-.277.078-.316.239a.353.353 0 0 0 0 .398l1.437 2.156-1.48 2.2a.368.368 0 0 0 0 .398c.082.121.199.2.359.2h3.594c.242 0 .402-.161.402-.4V18.79h15.172v1.598c0 .238.16.398.402.398h3.594c.16 0 .238-.12.316-.238a.36.36 0 0 0 0-.402zM4.813 4.012h14.375v9.187h-2.105a1.2 1.2 0 0 1 .906-.402c.242 0 .403-.156.403-.399v-5.59c0-.238-.16-.398-.403-.398-.675 0-1.195-.52-1.195-1.2 0-.237-.16-.397-.398-.397h-8.79c-.238 0-.398.16-.398.398 0 .68-.52 1.2-1.195 1.2-.242 0-.403.16-.403.398v5.59c0 .242.16.398.403.398.36 0 .687.152.906.402H4.812zm5.59 4.793c0-.88.72-1.598 1.598-1.598.879 0 1.598.719 1.598 1.598 0 .879-.72 1.597-1.598 1.597a1.602 1.602 0 0 1-1.598-1.597zm4.766 4.394a3.215 3.215 0 0 0-1.754-2.465c.594-.437.98-1.14.98-1.93A2.402 2.402 0 0 0 12 6.41a2.402 2.402 0 0 0-2.395 2.395c0 .789.387 1.492.98 1.93a3.215 3.215 0 0 0-1.753 2.464h-.984c-.282-.601-.801-1-1.438-1.16V7.168c.797-.121 1.399-.758 1.555-1.559h8.07c.156.801.758 1.438 1.555 1.559v4.871a1.946 1.946 0 0 0-1.438 1.16zm-.813 0h-4.71c.199-1.12 1.156-1.996 2.355-1.996 1.2 0 2.156.875 2.355 1.996zm-10.742.797h16.774v3.992H3.613zm0 5.992H1.18l1.195-1.797a.427.427 0 0 0 0-.441L1.18 15.992h1.636v2.399c0 .238.16.398.399.398h.398zm16.774 0v-1.16h.398c.238 0 .399-.16.399-.398v-2.395h1.636l-1.195 1.754a.427.427 0 0 0 0 .441l1.195 1.758zm0 0"/>
    <path d="M7.207 15.594h1.598c.242 0 .398-.16.398-.399 0-.238-.156-.398-.398-.398H7.207c-.238 0-.398.16-.398.398 0 .239.16.399.398.399zm0 0M10.402 15.594h2.395c.242 0 .402-.16.402-.399 0-.238-.16-.398-.402-.398h-2.395c-.238 0-.398.16-.398.398 0 .239.16.399.398.399zm0 0M7.207 17.191h3.594c.242 0 .402-.16.402-.398 0-.242-.16-.398-.402-.398H7.207c-.238 0-.398.156-.398.398 0 .238.16.398.398.398zm0 0M16.793 16.395h-.8c-.24 0-.4.156-.4.398 0 .238.16.398.4.398h.8c.238 0 .398-.16.398-.398 0-.242-.16-.398-.398-.398zm0 0M12 16.793c0 .238.16.398.398.398h1.997c.242 0 .402-.16.402-.398 0-.242-.16-.398-.402-.398h-1.997c-.238 0-.398.156-.398.398zm0 0M14.797 15.594h1.996c.238 0 .398-.16.398-.399 0-.238-.16-.398-.398-.398h-1.996c-.242 0-.402.16-.402.398 0 .239.16.399.402.399zm0 0"/>
</svg>
